X: 28142
T: Mrs Galvin's
R: hornpipe
M: 4/4
K: Dmajor
d2AG FEFD|GFGE FEFA|d2AG FEFD|Ee~e2 egfe|
d2AG FEFD|GFGE FEFA|d2de fdAG|1 FD (3DDD Dgfe:|2 FD (3DDD D (3ABc||
|:d2de f2fg|a2ab agfe|d2de fd (3efg|af (3gfe dcAc|
d2de f2fg|a^gab agfe|(3dcd (3efg fdAG|1 FAEA D3c:|2 FD (3DDD fgfe||

